app/src-tauri/resources/luts/kodak-endura.cube
TITLE "DiVERE Kodak Endura Premier"
LUT_1D_SIZE 1024
DOMAIN_MIN 0.0 0.0 0.0
DOMAIN_MAX 1.0 1.0 1.0

0.451339 0.497558 0.508198
0.451339 0.497558 0.508198
0.451339 0.497558 0.508198
0.451339 0.497558 0.508198
0.451339 0.497558 0.508198
0.451339 0.497558 0.508198
0.451339 0.497558 0.508198
0.451339 0.497558 0.508198
0.451339 0.497558 0.508198
0.451339 0.497558 0.508198
0.451339 0.497558 0.508198
0.451339 0.497558 0.508198
0.451339 0.497558 0.508198
0.451339 0.497558 0.508198
0.451339 0.497558 0.508198
0.451339 0.497558 0.508198
0.451339 0.497558 0.508198
0.451339 0.497558 0.508198
0.451339 0.497558 0.508198
0.451339 0.497558 0.508198
0.451339 0.497558 0.508198
0.451339 0.497558 0.508198
0.451339 0.497558 0.508198
0.451339 0.497558 0.508198
0.451339 0.497558 0.508198
0.451339 0.497558 0.508198
0.451339 0.497558 0.508198
0.451339 0.497558 0.508198
0.451339 0.497558 0.508198
0.451339 0.497558 0.508198
0.451339 0.497558 0.508198
0.451339 0.497558 0.508198
0.451339 0.497558 0.508198
0.451339 0.497558 0.508198
0.451339 0.497558 0.508198
0.451339 0.497558 0.508198
0.451339 0.497558 0.508198
0.451339 0.497558 0.508198
0.451339 0.497558 0.508198
0.451339 0.497558 0.508198
0.451339 0.497558 0.508198
0.451339 0.497558 0.508198
0.451339 0.497558 0.508198
0.451339 0.497558 0.508198
0.451339 0.497558 0.508198
0.451339 0.497558 0.508198
0.451339 0.497558 0.508198
0.451339 0.497558 0.508198
0.451339 0.497558 0.508198
0.451339 0.497558 0.508198
0.451339 0.497558 0.508198
0.451339 0.497558 0.508198
0.451339 0.497558 0.508198
0.451339 0.497558 0.508198
0.451339 0.497558 0.508198
0.451339 0.497558 0.508198
0.451339 0.497558 0.508198
0.451339 0.497558 0.508198
0.451339 0.497558 0.508198
0.451339 0.497558 0.508198
0.451339 0.497558 0.508198
0.451339 0.497558 0.508198
0.451339 0.497558 0.508198
0.451339 0.497558 0.508198
0.451339 0.497558 0.508198
0.451339 0.497558 0.508198
0.451339 0.497558 0.508198
0.451339 0.497558 0.508198
0.451339 0.497558 0.508198
0.451339 0.497558 0.508198
0.451339 0.497558 0.508198
0.451339 0.497558 0.508198
0.451339 0.497558 0.508198
0.451339 0.497558 0.508198
0.451339 0.497558 0.508198
0.451339 0.497558 0.508198
0.451339 0.497558 0.508198
0.451339 0.497558 0.508198
0.451339 0.497558 0.508198
0.451339 0.497558 0.508198
0.451339 0.497558 0.508198
0.451339 0.497558 0.508198
0.451339 0.497558 0.508198
0.451339 0.497558 0.508198
0.451339 0.497558 0.508198
0.451339 0.497558 0.508198
0.451339 0.497558 0.508198
0.451339 0.497558 0.508198
0.451339 0.497558 0.508198
0.451339 0.497558 0.508198
0.451339 0.497558 0.508198
0.451339 0.497558 0.508198
0.451339 0.497558 0.508198
0.451339 0.497558 0.508198
0.451339 0.497558 0.508198
0.451339 0.497558 0.508198
0.451339 0.497558 0.508198
0.451339 0.497558 0.508198
0.451339 0.497558 0.508198
0.451339 0.497558 0.508198
0.451339 0.497558 0.508198
0.451339 0.497558 0.508198
0.451339 0.497558 0.508198
0.451339 0.497558 0.508198
0.451339 0.497558 0.508198
0.451339 0.497558 0.508198
0.451339 0.497558 0.508198
0.451339 0.497558 0.508198
0.451339 0.497558 0.508198
0.451339 0.497558 0.508198
0.451339 0.497558 0.508198
0.451339 0.497558 0.508198
0.451339 0.497558 0.508198
0.451339 0.497558 0.508198
0.451339 0.497558 0.508198
0.451339 0.497558 0.508198
0.451339 0.497558 0.508198
0.451339 0.497558 0.508198
0.451339 0.497558 0.508198
0.451339 0.497558 0.508198
0.451339 0.497558 0.508198
0.451339 0.497558 0.508198
0.451339 0.497558 0.508198
0.451339 0.497558 0.508198
0.451339 0.497558 0.508198
0.451339 0.497558 0.508198
0.451339 0.497558 0.508198
0.451339 0.497558 0.508198
0.451339 0.497558 0.508198
0.451339 0.497558 0.508198
0.451339 0.497558 0.508198
0.451339 0.497558 0.508198
0.451339 0.497558 0.508198
0.451339 0.497558 0.508198
0.451339 0.497558 0.508198
0.451339 0.497558 0.508198
0.451339 0.497558 0.508198
0.451339 0.497558 0.508198
0.451339 0.497558 0.508198
0.451339 0.497558 0.508198
0.451339 0.497558 0.508198
0.451339 0.497558 0.508198
0.451339 0.497558 0.508198
0.451339 0.497558 0.508198
0.451339 0.497558 0.508198
0.451339 0.497558 0.508198
0.451339 0.497558 0.508198
0.451339 0.497558 0.508198
0.451339 0.497558 0.508198
0.451339 0.497558 0.508198
0.451339 0.497558 0.508198
0.451339 0.497558 0.508198
0.451339 0.497558 0.508198
0.451339 0.497558 0.508198
0.451339 0.497558 0.508198
0.451339 0.497558 0.508198
0.451339 0.497558 0.508198
0.451339 0.497558 0.508198
0.451339 0.497558 0.508198
0.451339 0.497558 0.508198
0.451339 0.497558 0.508198
0.451339 0.497558 0.508198
0.451339 0.497558 0.508198
0.451339 0.497558 0.508198
0.451339 0.497558 0.508198
0.451339 0.497558 0.508198
0.451339 0.497558 0.508198
0.451339 0.497558 0.508198
0.451339 0.497558 0.508198
0.451339 0.497558 0.508198
0.451339 0.497558 0.508198
0.451339 0.497558 0.508198
0.451339 0.497558 0.508198
0.451339 0.497558 0.508198
0.451339 0.497558 0.508198
0.451339 0.497558 0.508198
0.451339 0.497558 0.508198
0.451339 0.497558 0.508198
0.451339 0.497558 0.508198
0.451339 0.497558 0.508198
0.451339 0.497558 0.508198
0.451339 0.497558 0.508198
0.451339 0.497558 0.508198
0.451339 0.497558 0.508198
0.451339 0.497558 0.508198
0.451339 0.497558 0.508198
0.451339 0.497558 0.508198
0.451339 0.497558 0.508198
0.451339 0.497558 0.508198
0.451339 0.497558 0.508198
0.451339 0.497558 0.508198
0.451339 0.497558 0.508198
0.451339 0.497558 0.508198
0.451339 0.497558 0.508198
0.451339 0.497558 0.508198
0.451339 0.497558 0.508198
0.451339 0.497558 0.508198
0.451339 0.497558 0.508198
0.451339 0.497558 0.508198
0.451339 0.497558 0.508198
0.451339 0.497558 0.508198
0.451339 0.497558 0.508198
0.451339 0.497558 0.508198
0.451339 0.497558 0.508198
0.451339 0.497558 0.508198
0.451339 0.497558 0.508198
0.451339 0.497558 0.508198
0.451339 0.497558 0.508198
0.451339 0.497558 0.508198
0.451339 0.497558 0.508198
0.451339 0.497558 0.508198
0.451339 0.497558 0.508198
0.451339 0.497558 0.508198
0.451339 0.497558 0.508198
0.451339 0.497558 0.508198
0.451339 0.497558 0.508198
0.451339 0.497558 0.508198
0.451339 0.497558 0.508198
0.451339 0.497558 0.508198
0.451339 0.497558 0.508198
0.451339 0.497558 0.508198
0.451339 0.497558 0.508198
0.451339 0.497558 0.508198
0.451339 0.497558 0.508198
0.451339 0.497558 0.508198
0.451339 0.497558 0.508198
0.451339 0.497558 0.508198
0.451339 0.497558 0.508198
0.451339 0.497558 0.508198
0.451339 0.497558 0.508198
0.451339 0.497558 0.508198
0.451339 0.497558 0.508198
0.451339 0.497558 0.508198
0.451339 0.497558 0.508198
0.451339 0.497558 0.508198
0.451339 0.497558 0.508198
0.451339 0.497558 0.508198
0.451339 0.497558 0.508198
0.451339 0.497558 0.508198
0.451339 0.497558 0.508198
0.451339 0.497558 0.508198
0.451339 0.497558 0.508198
0.451339 0.497558 0.508198
0.451339 0.497558 0.508198
0.451339 0.497558 0.508198
0.451339 0.497558 0.508198
0.451339 0.497558 0.508198
0.451339 0.497558 0.508198
0.451339 0.497558 0.508198
0.451339 0.497558 0.508198
0.451339 0.497558 0.508198
0.451339 0.497558 0.508198
0.451339 0.497558 0.508198
0.451339 0.497558 0.508198
0.451339 0.497558 0.508198
0.451339 0.497558 0.508198
0.451339 0.497558 0.508198
0.451339 0.497558 0.508198
0.451339 0.497558 0.508198
0.451339 0.497558 0.508198
0.451339 0.497558 0.508198
0.451339 0.497558 0.508198
0.451339 0.497558 0.508198
0.451339 0.497558 0.508198
0.451339 0.497558 0.508198
0.451339 0.497558 0.508198
0.451339 0.497558 0.508198
0.451339 0.497558 0.508198
0.451339 0.497558 0.508198
0.451339 0.497558 0.508198
0.451339 0.497558 0.508198
0.451339 0.497558 0.508198
0.451339 0.497558 0.508198
0.451339 0.497558 0.508198
0.451339 0.497558 0.508198
0.451339 0.497558 0.508198
0.451339 0.497558 0.508198
0.451339 0.497558 0.508198
0.451339 0.497558 0.508198
0.451339 0.497558 0.508198
0.451339 0.497558 0.508198
0.451339 0.497558 0.508198
0.451339 0.497558 0.508198
0.451339 0.497558 0.508198
0.451339 0.497558 0.508198
0.451339 0.497558 0.508198
0.451339 0.497558 0.508198
0.451339 0.497558 0.508198
0.451339 0.497558 0.508198
0.451339 0.497558 0.508198
0.451339 0.497558 0.508198
0.451339 0.497558 0.508198
0.451339 0.497558 0.508198
0.451339 0.497558 0.508198
0.451339 0.497558 0.508198
0.451339 0.497558 0.508198
0.451339 0.497558 0.508198
0.451339 0.497558 0.508198
0.451339 0.497558 0.508198
0.451339 0.497558 0.508198
0.451339 0.497558 0.508198
0.451339 0.497558 0.508198
0.451339 0.497558 0.508198
0.451339 0.497558 0.508198
0.451339 0.497558 0.508198
0.451339 0.497558 0.508198
0.451339 0.497558 0.508198
0.451339 0.497558 0.508198
0.451339 0.497558 0.508198
0.451339 0.497558 0.508198
0.451339 0.497558 0.508198
0.451339 0.497558 0.508198
0.451339 0.497558 0.508198
0.451339 0.497558 0.508198
0.451339 0.497558 0.508198
0.451339 0.497558 0.508198
0.451339 0.497558 0.508198
0.451339 0.497558 0.508198
0.451339 0.497558 0.508198
0.451339 0.497558 0.508198
0.451339 0.497558 0.508198
0.451339 0.497558 0.508198
0.451339 0.497558 0.508198
0.451339 0.497558 0.508198
0.451339 0.497558 0.508198
0.451339 0.497558 0.508198
0.451339 0.497558 0.508198
0.451339 0.497558 0.508198
0.451339 0.497558 0.508198
0.451339 0.497558 0.508198
0.451339 0.497558 0.508198
0.451339 0.497558 0.508198
0.451339 0.497558 0.508198
0.451339 0.497558 0.508198
0.451339 0.497558 0.508198
0.451339 0.497558 0.508198
0.451339 0.497558 0.508198
0.451339 0.497558 0.508198
0.451339 0.497558 0.508198
0.451339 0.497558 0.508198
0.451339 0.497558 0.508198
0.451339 0.497558 0.508198
0.451339 0.497558 0.508198
0.451339 0.497558 0.508198
0.451339 0.497558 0.508198
0.451339 0.497558 0.508198
0.451339 0.497558 0.508198
0.451339 0.497558 0.508198
0.451339 0.497558 0.508198
0.451339 0.497558 0.508198
0.451339 0.497558 0.508198
0.451339 0.497558 0.508198
0.451339 0.497558 0.508198
0.451339 0.497558 0.508198
0.451339 0.497558 0.508198
0.451339 0.497558 0.508198
0.451339 0.497558 0.508198
0.451339 0.497558 0.508198
0.451339 0.497558 0.508198
0.451339 0.497558 0.508198
0.451339 0.497558 0.508198
0.451339 0.497558 0.508198
0.451339 0.497558 0.508198
0.451339 0.497558 0.508198
0.451339 0.497558 0.508198
0.451339 0.497558 0.508198
0.451339 0.497558 0.508198
0.451339 0.497558 0.508198
0.451339 0.497558 0.508198
0.451339 0.497558 0.508198
0.451339 0.497558 0.508198
0.451339 0.497558 0.508198
0.451339 0.497558 0.508198
0.451339 0.497558 0.508198
0.451339 0.497558 0.508198
0.451339 0.497558 0.508198
0.451339 0.497558 0.508198
0.451339 0.497558 0.508198
0.451339 0.497558 0.508198
0.451339 0.497558 0.508198
0.451339 0.497558 0.508198
0.451339 0.497558 0.508198
0.451339 0.497558 0.508198
0.451339 0.497558 0.508198
0.451339 0.497558 0.508198
0.451339 0.497558 0.508198
0.451339 0.497558 0.508198
0.451339 0.497558 0.508198
0.451339 0.497558 0.508198
0.451339 0.497558 0.508198
0.451339 0.497558 0.508198
0.451339 0.497558 0.508198
0.451339 0.497558 0.508198
0.451339 0.497558 0.508198
0.451339 0.497558 0.508198
0.451339 0.497558 0.508198
0.451339 0.497558 0.508198
0.451339 0.497558 0.508198
0.451339 0.497558 0.508198
0.451339 0.497558 0.508198
0.451339 0.497558 0.508198
0.451339 0.497558 0.508198
0.451339 0.497558 0.508198
0.451339 0.497558 0.508198
0.451339 0.497558 0.508198
0.451339 0.497558 0.508198
0.451339 0.497558 0.508198
0.451339 0.497558 0.508198
0.451339 0.497558 0.508198
0.451339 0.497558 0.508198
0.451339 0.497558 0.508198
0.451339 0.497558 0.508198
0.451339 0.497558 0.508198
0.451339 0.497558 0.508198
0.451339 0.497558 0.508198
0.451339 0.497530 0.508198
0.451314 0.497470 0.508198
0.451205 0.497409 0.508198
0.451097 0.497349 0.508177
0.450989 0.497289 0.508143
0.450880 0.497228 0.508110
0.450772 0.497168 0.508077
0.450663 0.497108 0.508044
0.450555 0.497047 0.508011
0.450446 0.496987 0.507977
0.450338 0.496926 0.507944
0.450230 0.496866 0.507911
0.450121 0.496806 0.507878
0.450013 0.496745 0.507845
0.449904 0.496685 0.507811
0.449796 0.496625 0.507778
0.449687 0.496564 0.507745
0.449579 0.496504 0.507712
0.449471 0.496443 0.507679
0.449362 0.496383 0.507646
0.449254 0.496323 0.507612
0.449145 0.496262 0.507579
0.449037 0.496202 0.507546
0.448928 0.496142 0.507513
0.448820 0.496081 0.507480
0.448712 0.496021 0.507446
0.448603 0.495960 0.507413
0.448495 0.495900 0.507380
0.448386 0.495840 0.507347
0.448278 0.495779 0.507314
0.448169 0.495719 0.507281
0.448061 0.495659 0.507247
0.447953 0.495650 0.507214
0.447889 0.495682 0.507181
0.447887 0.495714 0.507148
0.447886 0.495746 0.507164
0.447884 0.495778 0.507186
0.447883 0.495810 0.507207
0.447882 0.495842 0.507229
0.447880 0.495875 0.507250
0.447879 0.495907 0.507272
0.447877 0.495939 0.507293
0.447876 0.495971 0.507315
0.447874 0.496003 0.507336
0.447873 0.496035 0.507358
0.447871 0.496067 0.507379
0.447870 0.496099 0.507401
0.447868 0.496131 0.507423
0.447867 0.496163 0.507444
0.447866 0.496195 0.507466
0.447864 0.496227 0.507487
0.447863 0.496259 0.507509
0.447861 0.496291 0.507530
0.447860 0.496324 0.507552
0.447858 0.496356 0.507573
0.447857 0.496388 0.507595
0.447855 0.496420 0.507617
0.447854 0.496452 0.507638
0.447853 0.496484 0.507660
0.447851 0.496516 0.507681
0.447850 0.496548 0.507703
0.447848 0.496580 0.507724
0.447847 0.496612 0.507746
0.447845 0.496644 0.507767
0.447844 0.496749 0.507789
0.447954 0.496890 0.507811
0.448138 0.497030 0.507842
0.448321 0.497171 0.507928
0.448505 0.497312 0.508013
0.448689 0.497453 0.508099
0.448872 0.497594 0.508185
0.449056 0.497735 0.508271
0.449240 0.497876 0.508356
0.449423 0.498017 0.508442
0.449607 0.498158 0.508528
0.449791 0.498299 0.508614
0.449974 0.498440 0.508699
0.450158 0.498581 0.508785
0.450342 0.498722 0.508871
0.450526 0.498863 0.508957
0.450709 0.499004 0.509042
0.450893 0.499145 0.509128
0.451077 0.499286 0.509214
0.451260 0.499427 0.509300
0.451444 0.499568 0.509385
0.451628 0.499709 0.509471
0.451811 0.499850 0.509557
0.451995 0.499990 0.509643
0.452179 0.500131 0.509729
0.452363 0.500272 0.509814
0.452546 0.500413 0.509900
0.452730 0.500554 0.509986
0.452914 0.500695 0.510072
0.453097 0.500836 0.510157
0.453281 0.500977 0.510243
0.453465 0.501118 0.510329
0.453648 0.501301 0.510415
0.453908 0.501497 0.510500
0.454187 0.501692 0.510593
0.454467 0.501888 0.510697
0.454747 0.502084 0.510802
0.455026 0.502279 0.510906
0.455306 0.502475 0.511010
0.455586 0.502671 0.511114
0.455866 0.502866 0.511218
0.456145 0.503062 0.511322
0.456425 0.503258 0.511426
0.456705 0.503453 0.511530
0.456984 0.503649 0.511634
0.457264 0.503845 0.511738
0.457544 0.504040 0.511842
0.457824 0.504236 0.511946
0.458103 0.504432 0.512050
0.458383 0.504627 0.512154
0.458663 0.504823 0.512258
0.458942 0.505019 0.512362
0.459222 0.505214 0.512466
0.459502 0.505410 0.512570
0.459781 0.505605 0.512674
0.460061 0.505801 0.512778
0.460341 0.505997 0.512882
0.460621 0.506192 0.512986
0.460900 0.506388 0.513091
0.461180 0.506584 0.513195
0.461460 0.506779 0.513299
0.461739 0.506975 0.513403
0.462019 0.507171 0.513507
0.462299 0.507366 0.513611
0.462579 0.507979 0.513715
0.463568 0.508655 0.513819
0.464578 0.509331 0.514198
0.465588 0.510007 0.514723
0.466598 0.510683 0.515249
0.467608 0.511359 0.515774
0.468618 0.512035 0.516300
0.469628 0.512711 0.516825
0.470638 0.513387 0.517351
0.471648 0.514063 0.517876
0.472658 0.514739 0.518402
0.473668 0.515415 0.518927
0.474678 0.516090 0.519453
0.475688 0.516766 0.519978
0.476698 0.517442 0.520504
0.477708 0.518118 0.521029
0.478718 0.518794 0.521555
0.479728 0.519470 0.522080
0.480738 0.520146 0.522606
0.481748 0.520822 0.523131
0.482758 0.521498 0.523657
0.483768 0.522174 0.524182
0.484778 0.522850 0.524708
0.485788 0.523526 0.525233
0.486798 0.524201 0.525759
0.487808 0.524877 0.526284
0.488818 0.525553 0.526810
0.489828 0.526229 0.527335
0.490838 0.526905 0.527861
0.491848 0.527581 0.528386
0.492858 0.528257 0.528911
0.493868 0.528933 0.529437
0.495107 0.530573 0.529962
0.497571 0.532241 0.530488
0.500035 0.533909 0.531930
0.502500 0.535577 0.533470
0.504964 0.537245 0.535010
0.507428 0.538913 0.536550
0.509893 0.540581 0.538091
0.512357 0.542248 0.539631
0.514822 0.543916 0.541171
0.517286 0.545584 0.542711
0.519750 0.547252 0.544251
0.522215 0.548920 0.545792
0.524679 0.550588 0.547332
0.527143 0.552256 0.548872
0.529608 0.553924 0.550412
0.532072 0.555592 0.551953
0.534536 0.557260 0.553493
0.537001 0.558928 0.555033
0.539465 0.560596 0.556573
0.541930 0.562264 0.558113
0.544394 0.563932 0.559654
0.546858 0.565600 0.561194
0.549323 0.567268 0.562734
0.551787 0.568936 0.564274
0.554251 0.570604 0.565815
0.556716 0.572272 0.567355
0.559180 0.573940 0.568895
0.561644 0.575608 0.570435
0.564109 0.577276 0.571976
0.566573 0.578944 0.573516
0.569038 0.580612 0.575056
0.571502 0.582408 0.576596
0.574612 0.585810 0.578136
0.578962 0.589212 0.579997
0.583313 0.592614 0.583626
0.587663 0.596016 0.587255
0.592014 0.599417 0.590885
0.596364 0.602819 0.594514
0.600715 0.606221 0.598144
0.605065 0.609623 0.601773
0.609416 0.613025 0.605402
0.613766 0.616426 0.609032
0.618117 0.619828 0.612661
0.622467 0.623230 0.616290
0.626818 0.626632 0.619920
0.631168 0.630034 0.623549
0.635519 0.633435 0.627178
0.639869 0.636837 0.630808
0.644220 0.640239 0.634437
0.648570 0.643641 0.638066
0.652921 0.647043 0.641696
0.657271 0.650444 0.645325
0.661622 0.653846 0.648954
0.665972 0.657248 0.652584
0.670323 0.660650 0.656213
0.674673 0.664052 0.659842
0.679024 0.667453 0.663472
0.683374 0.670855 0.667101
0.687725 0.674257 0.670730
0.692075 0.677659 0.674360
0.696426 0.681060 0.677989
0.700776 0.684462 0.681618
0.705127 0.687864 0.685248
0.709477 0.691384 0.688877
0.713639 0.695455 0.692506
0.717631 0.699526 0.696355
0.721623 0.703596 0.700526
0.725615 0.707667 0.704697
0.729608 0.711738 0.708869
0.733600 0.715808 0.713040
0.737592 0.719879 0.717211
0.741584 0.723950 0.721383
0.745576 0.728020 0.725554
0.749568 0.732091 0.729725
0.753560 0.736162 0.733897
0.757553 0.740232 0.738068
0.761545 0.744303 0.742240
0.765537 0.748374 0.746411
0.769529 0.752444 0.750582
0.773521 0.756515 0.754754
0.777513 0.760586 0.758925
0.781506 0.764657 0.763096
0.785498 0.768727 0.767268
0.789490 0.772798 0.771439
0.793482 0.776869 0.775611
0.797474 0.780939 0.779782
0.801466 0.785010 0.783953
0.805458 0.789081 0.788125
0.809451 0.793151 0.792296
0.813443 0.797222 0.796467
0.817435 0.801293 0.800639
0.821427 0.805363 0.804810
0.825419 0.809434 0.808981
0.829411 0.813505 0.813153
0.833404 0.817575 0.817324
0.837396 0.821361 0.821496
0.840537 0.824411 0.825667
0.843334 0.827461 0.829094
0.846131 0.830511 0.832127
0.848929 0.833561 0.835160
0.851726 0.836612 0.838194
0.854523 0.839662 0.841227
0.857320 0.842712 0.844260
0.860118 0.845762 0.847293
0.862915 0.848812 0.850327
0.865712 0.851862 0.853360
0.868509 0.854913 0.856393
0.871307 0.857963 0.859426
0.874104 0.861013 0.862460
0.876901 0.864063 0.865493
0.879699 0.867113 0.868526
0.882496 0.870163 0.871559
0.885293 0.873214 0.874592
0.888090 0.876264 0.877626
0.890888 0.879314 0.880659
0.893685 0.882364 0.883692
0.896482 0.885414 0.886725
0.899279 0.888464 0.889759
0.902077 0.891515 0.892792
0.904874 0.894565 0.895825
0.907671 0.897615 0.898858
0.910469 0.900665 0.901891
0.913266 0.903715 0.904925
0.916063 0.906765 0.907958
0.918860 0.909816 0.910991
0.921658 0.912866 0.914024
0.924455 0.915916 0.917058
0.927252 0.918419 0.920091
0.928823 0.920037 0.923124
0.930254 0.921655 0.924820
0.931685 0.923273 0.926374
0.933116 0.924891 0.927928
0.934546 0.926510 0.929483
0.935977 0.928128 0.931037
0.937408 0.929746 0.932591
0.938839 0.931364 0.934145
0.940269 0.932982 0.935700
0.941700 0.934600 0.937254
0.943131 0.936219 0.938808
0.944562 0.937837 0.940363
0.945992 0.939455 0.941917
0.947423 0.941073 0.943471
0.948854 0.942691 0.945025
0.950285 0.944309 0.946580
0.951716 0.945928 0.948134
0.953146 0.947546 0.949688
0.954577 0.949164 0.951242
0.956008 0.950782 0.952797
0.957439 0.952400 0.954351
0.958869 0.954018 0.955905
0.960300 0.955637 0.957460
0.961731 0.957255 0.959014
0.963162 0.958873 0.960568
0.964593 0.960491 0.962122
0.966023 0.962109 0.963677
0.967454 0.963727 0.965231
0.968885 0.965346 0.966785
0.970316 0.966964 0.968339
0.971746 0.968582 0.969894
0.973109 0.969751 0.971448
0.973720 0.970442 0.972857
0.974330 0.971134 0.973471
0.974940 0.971826 0.974084
0.975550 0.972517 0.974698
0.976160 0.973209 0.975312
0.976770 0.973901 0.975925
0.977380 0.974593 0.976539
0.977990 0.975284 0.977153
0.978600 0.975976 0.977767
0.979210 0.976668 0.978380
0.979820 0.977359 0.978994
0.980430 0.978051 0.979608
0.981040 0.978743 0.980221
0.981650 0.979434 0.980835
0.982260 0.980126 0.981449
0.982870 0.980818 0.982063
0.983480 0.981509 0.982676
0.984090 0.982201 0.983290
0.984700 0.982893 0.983904
0.985310 0.983584 0.984517
0.985920 0.984276 0.985131
0.986530 0.984968 0.985745
0.987140 0.985659 0.986359
0.987750 0.986351 0.986972
0.988360 0.987043 0.987586
0.988970 0.987734 0.988200
0.989580 0.988426 0.988814
0.990190 0.989118 0.989427
0.990800 0.989809 0.990041
0.991410 0.990501 0.990655
0.992020 0.991193 0.991268
0.992515 0.991597 0.991882
0.992695 0.991801 0.992320
0.992875 0.992004 0.992500
0.993055 0.992207 0.992679
0.993235 0.992410 0.992859
0.993414 0.992613 0.993038
0.993594 0.992816 0.993218
0.993774 0.993020 0.993398
0.993954 0.993223 0.993577
0.994134 0.993426 0.993757
0.994314 0.993629 0.993936
0.994493 0.993832 0.994116
0.994673 0.994035 0.994295
0.994853 0.994239 0.994475
0.995033 0.994442 0.994655
0.995213 0.994645 0.994834
0.995393 0.994848 0.995014
0.995572 0.995051 0.995193
0.995752 0.995255 0.995373
0.995932 0.995458 0.995553
0.996112 0.995661 0.995732
0.996292 0.995864 0.995912
0.996471 0.996067 0.996091
0.996651 0.996270 0.996271
0.996831 0.996474 0.996451
0.997011 0.996677 0.996630
0.997191 0.996880 0.996810
0.997371 0.997083 0.996989
0.997550 0.997286 0.997169
0.997730 0.997490 0.997348
0.997910 0.997693 0.997528
0.998090 0.997896 0.997708
0.998208 0.997991 0.997887
0.998250 0.998038 0.997978
0.998293 0.998085 0.998022
0.998335 0.998132 0.998066
0.998377 0.998178 0.998110
0.998420 0.998225 0.998154
0.998462 0.998272 0.998198
0.998505 0.998319 0.998242
0.998547 0.998365 0.998286
0.998590 0.998412 0.998330
0.998632 0.998459 0.998374
0.998675 0.998506 0.998418
0.998717 0.998553 0.998462
0.998760 0.998599 0.998506
0.998802 0.998646 0.998550
0.998845 0.998693 0.998594
0.998887 0.998740 0.998638
0.998930 0.998787 0.998682
0.998972 0.998833 0.998726
0.999014 0.998880 0.998770
0.999057 0.998927 0.998814
0.999099 0.998974 0.998858
0.999142 0.999020 0.998902
0.999184 0.999067 0.998946
0.999227 0.999114 0.998990
0.999269 0.999161 0.999033
0.999312 0.999208 0.999077
0.999354 0.999254 0.999121
0.999397 0.999301 0.999165
0.999439 0.999348 0.999209
0.999482 0.999395 0.999253
0.999524 0.999442 0.999297
0.999544 0.999457 0.999341
0.999550 0.999465 0.999355
0.999557 0.999473 0.999366
0.999563 0.999480 0.999377
0.999570 0.999488 0.999388
0.999576 0.999496 0.999399
0.999583 0.999503 0.999411
0.999589 0.999511 0.999422
0.999596 0.999519 0.999433
0.999602 0.999526 0.999444
0.999609 0.999534 0.999455
0.999615 0.999541 0.999466
0.999622 0.999549 0.999477
0.999628 0.999557 0.999488
0.999635 0.999564 0.999499
0.999641 0.999572 0.999510
0.999648 0.999580 0.999521
0.999654 0.999587 0.999532
0.999661 0.999595 0.999543
0.999667 0.999603 0.999554
0.999674 0.999610 0.999565
0.999680 0.999618 0.999576
0.999687 0.999626 0.999587
0.999693 0.999633 0.999598
0.999700 0.999641 0.999609
0.999706 0.999649 0.999620
0.999713 0.999656 0.999631
0.999719 0.999664 0.999642
0.999726 0.999671 0.999653
0.999732 0.999679 0.999664
0.999739 0.999687 0.999675
0.999745 0.999694 0.999686
0.999753 0.999696 0.999696
0.999761 0.999697 0.999706
0.999769 0.999698 0.999716
0.999777 0.999699 0.999725
0.999785 0.999700 0.999735
0.999793 0.999701 0.999745
0.999801 0.999702 0.999754
0.999809 0.999703 0.999764
0.999817 0.999704 0.999773
0.999825 0.999705 0.999783
0.999833 0.999706 0.999793
0.999841 0.999707 0.999802
0.999849 0.999708 0.999812
0.999857 0.999709 0.999821
0.999865 0.999710 0.999831
0.999873 0.999711 0.999841
0.999881 0.999712 0.999850
0.999889 0.999713 0.999860
0.999897 0.999714 0.999869
0.999904 0.999715 0.999879
0.999912 0.999716 0.999889
0.999920 0.999717 0.999898
0.999928 0.999718 0.999908
