app/src-tauri/resources/luts/kodak-ektacolor.cube
TITLE "DiVERE Kodak Ektacolor Edge"
LUT_1D_SIZE 1024
DOMAIN_MIN 0.0 0.0 0.0
DOMAIN_MAX 1.0 1.0 1.0

0.488491 0.469836 0.514150
0.488491 0.469836 0.514150
0.488491 0.469836 0.514150
0.488491 0.469836 0.514150
0.488491 0.469836 0.514150
0.488491 0.469836 0.514150
0.488491 0.469836 0.514150
0.488491 0.469836 0.514150
0.488491 0.469836 0.514150
0.488491 0.469836 0.514150
0.488491 0.469836 0.514150
0.488491 0.469836 0.514150
0.488491 0.469836 0.514150
0.488491 0.469836 0.514150
0.488491 0.469836 0.514150
0.488491 0.469836 0.514150
0.488491 0.469836 0.514150
0.488491 0.469836 0.514150
0.488491 0.469836 0.514150
0.488491 0.469836 0.514150
0.488491 0.469836 0.514150
0.488491 0.469836 0.514150
0.488491 0.469836 0.514150
0.488491 0.469836 0.514150
0.488491 0.469836 0.514150
0.488491 0.469836 0.514150
0.488491 0.469836 0.514150
0.488491 0.469836 0.514150
0.488491 0.469836 0.514150
0.488491 0.469836 0.514150
0.488491 0.469836 0.514150
0.488491 0.469836 0.514150
0.488491 0.469836 0.514150
0.488491 0.469836 0.514150
0.488491 0.469836 0.514150
0.488491 0.469836 0.514150
0.488491 0.469836 0.514150
0.488491 0.469836 0.514150
0.488491 0.469836 0.514150
0.488491 0.469836 0.514150
0.488491 0.469836 0.514150
0.488491 0.469836 0.514150
0.488491 0.469836 0.514150
0.488491 0.469836 0.514150
0.488491 0.469836 0.514150
0.488491 0.469836 0.514150
0.488491 0.469836 0.514150
0.488491 0.469836 0.514150
0.488491 0.469836 0.514150
0.488491 0.469836 0.514150
0.488491 0.469836 0.514150
0.488491 0.469836 0.514150
0.488491 0.469836 0.514150
0.488491 0.469836 0.514150
0.488491 0.469836 0.514150
0.488491 0.469836 0.514150
0.488491 0.469836 0.514150
0.488491 0.469836 0.514150
0.488491 0.469836 0.514150
0.488491 0.469836 0.514150
0.488491 0.469836 0.514150
0.488491 0.469836 0.514150
0.488491 0.469836 0.514150
0.488491 0.469836 0.514150
0.488491 0.469836 0.514150
0.488491 0.469836 0.514150
0.488491 0.469836 0.514150
0.488491 0.469836 0.514150
0.488491 0.469836 0.514150
0.488491 0.469836 0.514150
0.488491 0.469836 0.514150
0.488491 0.469836 0.514150
0.488491 0.469836 0.514150
0.488491 0.469836 0.514150
0.488491 0.469836 0.514150
0.488491 0.469836 0.514150
0.488491 0.469836 0.514150
0.488491 0.469836 0.514150
0.488491 0.469836 0.514150
0.488491 0.469836 0.514150
0.488491 0.469836 0.514150
0.488491 0.469836 0.514150
0.488491 0.469836 0.514150
0.488491 0.469836 0.514150
0.488491 0.469836 0.514150
0.488491 0.469836 0.514150
0.488491 0.469836 0.514150
0.488491 0.469836 0.514150
0.488491 0.469836 0.514150
0.488491 0.469836 0.514150
0.488491 0.469836 0.514150
0.488491 0.469836 0.514150
0.488491 0.469836 0.514150
0.488491 0.469836 0.514150
0.488491 0.469836 0.514150
0.488491 0.469836 0.514150
0.488491 0.469836 0.514150
0.488491 0.469836 0.514150
0.488491 0.469836 0.514150
0.488491 0.469836 0.514150
0.488491 0.469836 0.514150
0.488491 0.469836 0.514150
0.488491 0.469836 0.514150
0.488491 0.469836 0.514150
0.488491 0.469836 0.514150
0.488491 0.469836 0.514150
0.488491 0.469836 0.514150
0.488491 0.469836 0.514150
0.488491 0.469836 0.514150
0.488491 0.469836 0.514150
0.488491 0.469836 0.514150
0.488491 0.469836 0.514150
0.488491 0.469836 0.514150
0.488491 0.469836 0.514150
0.488491 0.469836 0.514150
0.488491 0.469836 0.514150
0.488491 0.469836 0.514150
0.488491 0.469836 0.514150
0.488491 0.469836 0.514150
0.488491 0.469836 0.514150
0.488491 0.469836 0.514150
0.488491 0.469836 0.514150
0.488491 0.469836 0.514150
0.488491 0.469836 0.514150
0.488491 0.469836 0.514150
0.488491 0.469836 0.514150
0.488491 0.469836 0.514150
0.488491 0.469836 0.514150
0.488491 0.469836 0.514150
0.488491 0.469836 0.514150
0.488491 0.469836 0.514150
0.488491 0.469836 0.514150
0.488491 0.469836 0.514150
0.488491 0.469836 0.514150
0.488491 0.469836 0.514150
0.488491 0.469836 0.514150
0.488491 0.469836 0.514150
0.488491 0.469836 0.514150
0.488491 0.469836 0.514150
0.488491 0.469836 0.514150
0.488491 0.469836 0.514150
0.488491 0.469836 0.514150
0.488491 0.469836 0.514150
0.488491 0.469836 0.514150
0.488491 0.469836 0.514150
0.488491 0.469836 0.514150
0.488491 0.469836 0.514150
0.488491 0.469836 0.514150
0.488491 0.469836 0.514150
0.488491 0.469836 0.514150
0.488491 0.469836 0.514150
0.488491 0.469836 0.514150
0.488491 0.469836 0.514150
0.488491 0.469836 0.514150
0.488491 0.469836 0.514150
0.488491 0.469836 0.514150
0.488491 0.469836 0.514150
0.488491 0.469836 0.514150
0.488491 0.469836 0.514150
0.488491 0.469836 0.514150
0.488491 0.469836 0.514150
0.488491 0.469836 0.514150
0.488491 0.469836 0.514150
0.488491 0.469836 0.514150
0.488491 0.469836 0.514150
0.488491 0.469836 0.514150
0.488491 0.469836 0.514150
0.488491 0.469836 0.514150
0.488491 0.469836 0.514150
0.488491 0.469836 0.514150
0.488491 0.469836 0.514150
0.488491 0.469836 0.514150
0.488491 0.469836 0.514150
0.488491 0.469836 0.514150
0.488491 0.469836 0.514150
0.488491 0.469836 0.514150
0.488491 0.469836 0.514150
0.488491 0.469836 0.514150
0.488491 0.469836 0.514150
0.488491 0.469836 0.514150
0.488491 0.469836 0.514150
0.488491 0.469836 0.514150
0.488491 0.469836 0.514150
0.488491 0.469836 0.514150
0.488491 0.469836 0.514150
0.488491 0.469836 0.514150
0.488491 0.469836 0.514150
0.488491 0.469836 0.514150
0.488491 0.469836 0.514150
0.488491 0.469836 0.514150
0.488491 0.469836 0.514150
0.488491 0.469836 0.514150
0.488491 0.469836 0.514150
0.488491 0.469836 0.514150
0.488491 0.469836 0.514150
0.488491 0.469836 0.514150
0.488491 0.469836 0.514150
0.488491 0.469836 0.514150
0.488491 0.469836 0.514150
0.488491 0.469836 0.514150
0.488491 0.469836 0.514150
0.488491 0.469836 0.514150
0.488491 0.469836 0.514150
0.488491 0.469836 0.514150
0.488491 0.469836 0.514150
0.488491 0.469836 0.514150
0.488491 0.469836 0.514150
0.488491 0.469836 0.514150
0.488491 0.469836 0.514150
0.488491 0.469836 0.514150
0.488491 0.469836 0.514150
0.488491 0.469836 0.514150
0.488491 0.469836 0.514150
0.488491 0.469836 0.514150
0.488491 0.469836 0.514150
0.488491 0.469836 0.514150
0.488491 0.469836 0.514150
0.488491 0.469836 0.514150
0.488491 0.469836 0.514150
0.488491 0.469836 0.514150
0.488491 0.469836 0.514150
0.488491 0.469836 0.514150
0.488491 0.469836 0.514150
0.488491 0.469836 0.514150
0.488491 0.469836 0.514150
0.488491 0.469836 0.514150
0.488491 0.469836 0.514150
0.488491 0.469836 0.514150
0.488491 0.469836 0.514150
0.488491 0.469836 0.514150
0.488491 0.469836 0.514150
0.488491 0.469836 0.514150
0.488491 0.469836 0.514150
0.488491 0.469836 0.514150
0.488491 0.469836 0.514150
0.488491 0.469836 0.514150
0.488491 0.469836 0.514150
0.488491 0.469836 0.514150
0.488491 0.469836 0.514150
0.488491 0.469836 0.514150
0.488491 0.469836 0.514150
0.488491 0.469836 0.514150
0.488491 0.469836 0.514150
0.488491 0.469836 0.514150
0.488491 0.469836 0.514150
0.488491 0.469836 0.514150
0.488491 0.469836 0.514150
0.488491 0.469836 0.514150
0.488491 0.469836 0.514150
0.488491 0.469836 0.514150
0.488491 0.469836 0.514150
0.488491 0.469836 0.514150
0.488491 0.469836 0.514150
0.488491 0.469836 0.514150
0.488491 0.469836 0.514150
0.488491 0.469836 0.514150
0.488491 0.469836 0.514150
0.488491 0.469836 0.514150
0.488491 0.469836 0.514150
0.488491 0.469836 0.514150
0.488491 0.469836 0.514150
0.488491 0.469836 0.514150
0.488491 0.469836 0.514150
0.488491 0.469836 0.514150
0.488491 0.469836 0.514150
0.488491 0.469836 0.514150
0.488491 0.469836 0.514150
0.488491 0.469836 0.514150
0.488491 0.469836 0.514150
0.488491 0.469836 0.514150
0.488491 0.469836 0.514150
0.488491 0.469836 0.514150
0.488491 0.469836 0.514150
0.488491 0.469836 0.514150
0.488491 0.469836 0.514150
0.488491 0.469836 0.514150
0.488491 0.469836 0.514150
0.488491 0.469836 0.514150
0.488491 0.469836 0.514150
0.488491 0.469836 0.514150
0.488491 0.469836 0.514150
0.488491 0.469836 0.514150
0.488491 0.469836 0.514150
0.488491 0.469836 0.514150
0.488491 0.469836 0.514150
0.488491 0.469836 0.514150
0.488491 0.469836 0.514150
0.488491 0.469836 0.514150
0.488491 0.469836 0.514150
0.488491 0.469836 0.514150
0.488491 0.469836 0.514150
0.488491 0.469836 0.514150
0.488491 0.469836 0.514150
0.488491 0.469836 0.514150
0.488491 0.469836 0.514150
0.488491 0.469836 0.514150
0.488491 0.469836 0.514150
0.488491 0.469836 0.514150
0.488491 0.469836 0.514150
0.488491 0.469836 0.514150
0.488491 0.469836 0.514150
0.488491 0.469836 0.514150
0.488491 0.469836 0.514150
0.488491 0.469836 0.514150
0.488491 0.469836 0.514150
0.488491 0.469836 0.514150
0.488491 0.469836 0.514150
0.488491 0.469836 0.514150
0.488491 0.469836 0.514150
0.488491 0.469836 0.514150
0.488491 0.469836 0.514150
0.488491 0.469836 0.514150
0.488491 0.469836 0.514150
0.488491 0.469836 0.514150
0.488491 0.469836 0.514150
0.488491 0.469836 0.514150
0.488491 0.469836 0.514150
0.488491 0.469836 0.514150
0.488491 0.469836 0.514150
0.488491 0.469836 0.514150
0.488491 0.469836 0.514150
0.488491 0.469836 0.514150
0.488491 0.469836 0.514150
0.488491 0.469836 0.514150
0.488491 0.469836 0.514150
0.488491 0.469836 0.514150
0.488491 0.469836 0.514150
0.488491 0.469836 0.514150
0.488491 0.469836 0.514150
0.488491 0.469836 0.514150
0.488491 0.469836 0.514150
0.488491 0.469836 0.514150
0.488491 0.469836 0.514150
0.488491 0.469836 0.514150
0.488491 0.469836 0.514150
0.488491 0.469836 0.514150
0.488491 0.469836 0.514150
0.488491 0.469836 0.514150
0.488491 0.469836 0.514150
0.488491 0.469836 0.514150
0.488491 0.469836 0.514150
0.488491 0.469836 0.514150
0.488491 0.469836 0.514150
0.488491 0.469836 0.514150
0.488491 0.469836 0.514150
0.488491 0.469836 0.514150
0.488491 0.469836 0.514150
0.488491 0.469836 0.514150
0.488491 0.469836 0.514150
0.488491 0.469836 0.514150
0.488491 0.469836 0.514150
0.488491 0.469836 0.514150
0.488491 0.469836 0.514150
0.488491 0.469836 0.514150
0.488491 0.469836 0.514150
0.488491 0.469836 0.514150
0.488491 0.469836 0.514150
0.488491 0.469836 0.514150
0.488491 0.469836 0.514150
0.488491 0.469836 0.514150
0.488491 0.469836 0.514150
0.488491 0.469836 0.514150
0.488491 0.469836 0.514150
0.488491 0.469836 0.514150
0.488491 0.469836 0.514150
0.488491 0.469836 0.514150
0.488491 0.469836 0.514150
0.488491 0.469836 0.514150
0.488491 0.469836 0.514150
0.488491 0.469836 0.514150
0.488491 0.469836 0.514150
0.488491 0.469836 0.514150
0.488491 0.469836 0.514150
0.488491 0.469836 0.514150
0.488491 0.469836 0.514150
0.488491 0.469836 0.514150
0.488491 0.469836 0.514150
0.488491 0.469836 0.514150
0.488491 0.469836 0.514150
0.488491 0.469836 0.514150
0.488491 0.469836 0.514150
0.488491 0.469836 0.514150
0.488491 0.469836 0.514150
0.488491 0.469836 0.514150
0.488491 0.469836 0.514150
0.488491 0.469836 0.514150
0.488491 0.469836 0.514150
0.488491 0.469836 0.514150
0.488491 0.469836 0.514150
0.488491 0.469836 0.514150
0.488491 0.469836 0.514150
0.488491 0.469836 0.514150
0.488491 0.469836 0.514150
0.488491 0.469836 0.514150
0.488491 0.469836 0.514150
0.488491 0.469836 0.514150
0.488491 0.469836 0.514150
0.488491 0.469836 0.514150
0.488491 0.469836 0.514150
0.488491 0.469836 0.514150
0.488491 0.469836 0.514150
0.488491 0.469836 0.514150
0.488491 0.469836 0.514150
0.488491 0.469836 0.514150
0.488491 0.469836 0.514150
0.488491 0.469836 0.514150
0.488491 0.469836 0.514150
0.488491 0.469836 0.514150
0.488491 0.469836 0.514150
0.488491 0.469836 0.514150
0.488491 0.469836 0.514150
0.488491 0.469836 0.514150
0.488491 0.469836 0.514150
0.488491 0.469836 0.514150
0.488491 0.469836 0.514150
0.488491 0.469836 0.514150
0.488491 0.469836 0.514150
0.488491 0.469836 0.514150
0.488491 0.469836 0.514150
0.488491 0.469836 0.514150
0.488491 0.469836 0.514150
0.488491 0.469836 0.514150
0.488491 0.469836 0.514150
0.488491 0.469836 0.514150
0.488491 0.469836 0.514150
0.488491 0.469836 0.514150
0.488491 0.469836 0.514150
0.488491 0.469836 0.514150
0.488491 0.469836 0.514150
0.488491 0.469836 0.514150
0.488491 0.469836 0.514150
0.488491 0.469836 0.514150
0.488491 0.469836 0.514150
0.488491 0.469836 0.514150
0.488491 0.469836 0.514150
0.488491 0.469836 0.514150
0.488491 0.469836 0.514150
0.488491 0.469836 0.514150
0.488491 0.469836 0.514150
0.488491 0.469836 0.514150
0.488491 0.469836 0.514150
0.488491 0.469836 0.514150
0.488491 0.469836 0.514150
0.488491 0.469836 0.514150
0.488491 0.469836 0.514150
0.488491 0.469836 0.514150
0.488491 0.469836 0.514150
0.488491 0.469836 0.514150
0.488491 0.469836 0.514150
0.488491 0.469836 0.514150
0.488491 0.469836 0.514150
0.488491 0.469836 0.514150
0.488491 0.469836 0.514150
0.488491 0.469836 0.514150
0.488491 0.469836 0.514150
0.488491 0.469836 0.514150
0.488491 0.469836 0.514150
0.488491 0.469836 0.514150
0.488491 0.469836 0.514150
0.488491 0.469836 0.514150
0.488491 0.469836 0.514150
0.488491 0.469836 0.514150
0.488491 0.469836 0.514150
0.488491 0.469836 0.514150
0.488491 0.469836 0.514150
0.488491 0.469836 0.514150
0.488491 0.469836 0.514150
0.488491 0.469836 0.514150
0.488491 0.469836 0.514150
0.488491 0.469836 0.514150
0.488491 0.469836 0.514150
0.488491 0.469836 0.514150
0.488491 0.469836 0.514150
0.488491 0.469836 0.514150
0.488491 0.469836 0.514150
0.488491 0.469836 0.514150
0.488491 0.469836 0.514150
0.488491 0.469836 0.514150
0.488491 0.469836 0.514150
0.488491 0.469836 0.514150
0.488491 0.469836 0.514150
0.488491 0.469836 0.514150
0.488491 0.469836 0.514150
0.488491 0.469836 0.514150
0.488491 0.469836 0.514150
0.488491 0.469836 0.514150
0.488491 0.469836 0.514150
0.488491 0.469836 0.514150
0.488491 0.469836 0.514150
0.488491 0.469836 0.514150
0.488491 0.469836 0.514150
0.488491 0.469836 0.514150
0.488491 0.469836 0.514150
0.488491 0.469836 0.514150
0.488491 0.469836 0.514150
0.488491 0.469836 0.514150
0.488491 0.469836 0.514206
0.488491 0.469988 0.514337
0.488599 0.470275 0.514469
0.488847 0.470562 0.514601
0.489096 0.470849 0.514732
0.489344 0.471135 0.514864
0.489592 0.471422 0.514996
0.489840 0.471709 0.515127
0.490089 0.471997 0.515259
0.490337 0.472284 0.515391
0.490585 0.472571 0.515522
0.490833 0.472858 0.515654
0.491081 0.473145 0.515786
0.491330 0.473431 0.515917
0.491578 0.473718 0.516049
0.491826 0.474006 0.516181
0.492074 0.474293 0.516312
0.492323 0.474580 0.516444
0.492571 0.474867 0.516576
0.492819 0.475154 0.516707
0.493067 0.475441 0.516839
0.493316 0.475727 0.516971
0.493564 0.476014 0.517102
0.493812 0.476302 0.517250
0.494060 0.476640 0.517411
0.494309 0.477009 0.517572
0.494774 0.477378 0.517733
0.495249 0.477746 0.517894
0.495725 0.478115 0.518055
0.496200 0.478484 0.518216
0.496675 0.478853 0.518377
0.497151 0.479222 0.518538
0.497626 0.479590 0.518699
0.498102 0.479959 0.518860
0.498577 0.480328 0.519022
0.499053 0.480697 0.519183
0.499528 0.481066 0.519344
0.500004 0.481434 0.519505
0.500479 0.481803 0.519666
0.500955 0.482172 0.519827
0.501430 0.482541 0.519988
0.501905 0.482910 0.520149
0.502381 0.483278 0.520310
0.502856 0.483647 0.520471
0.503332 0.484016 0.520632
0.503807 0.484385 0.520793
0.504283 0.484754 0.521036
0.504758 0.485150 0.521319
0.505234 0.485556 0.521601
0.505747 0.485963 0.521884
0.506302 0.486370 0.522167
0.506856 0.486776 0.522450
0.507411 0.487183 0.522732
0.507966 0.487589 0.523015
0.508521 0.487996 0.523298
0.509076 0.488402 0.523581
0.509631 0.488809 0.523863
0.510185 0.489215 0.524146
0.510740 0.489622 0.524429
0.511295 0.490028 0.524711
0.511850 0.490435 0.524994
0.512405 0.490842 0.525277
0.512959 0.491248 0.525560
0.513514 0.491655 0.525842
0.514069 0.492061 0.526125
0.514624 0.492468 0.526408
0.515179 0.492874 0.526691
0.515733 0.493281 0.526973
0.516288 0.493687 0.527256
0.516843 0.494094 0.527691
0.517398 0.494671 0.528165
0.517953 0.495282 0.528639
0.518508 0.495893 0.529113
0.519217 0.496505 0.529587
0.519928 0.497116 0.530060
0.520638 0.497728 0.530534
0.521348 0.498339 0.531008
0.522058 0.498950 0.531482
0.522769 0.499562 0.531956
0.523479 0.500173 0.532430
0.524189 0.500785 0.532904
0.524900 0.501396 0.533378
0.525610 0.502007 0.533852
0.526320 0.502619 0.534325
0.527031 0.503230 0.534799
0.527741 0.503842 0.535273
0.528451 0.504453 0.535747
0.529162 0.505064 0.536221
0.529872 0.505676 0.536695
0.530582 0.506287 0.537169
0.531293 0.506899 0.537643
0.532003 0.507510 0.538116
0.532713 0.508121 0.538582
0.533424 0.508901 0.539048
0.534134 0.509693 0.539513
0.534844 0.510486 0.539978
0.535662 0.511278 0.540444
0.536580 0.512070 0.540909
0.537499 0.512862 0.541374
0.538417 0.513654 0.541840
0.539336 0.514447 0.542305
0.540254 0.515239 0.542770
0.541173 0.516031 0.543236
0.542091 0.516823 0.543701
0.543010 0.517615 0.544166
0.543928 0.518408 0.544631
0.544847 0.519200 0.545097
0.545765 0.519992 0.545562
0.546684 0.520784 0.546027
0.547602 0.521576 0.546493
0.548521 0.522369 0.546958
0.549439 0.523161 0.547423
0.550358 0.523953 0.547889
0.551276 0.524745 0.548354
0.552195 0.525537 0.548844
0.553113 0.526347 0.549861
0.554032 0.527711 0.550878
0.554950 0.529075 0.551896
0.555869 0.530439 0.552913
0.556812 0.531802 0.553930
0.558438 0.533166 0.554947
0.560063 0.534530 0.555965
0.561689 0.535893 0.556982
0.563314 0.537257 0.557999
0.564940 0.538621 0.559016
0.566565 0.539985 0.560034
0.568190 0.541348 0.561051
0.569816 0.542712 0.562068
0.571441 0.544076 0.563085
0.573067 0.545439 0.564103
0.574692 0.546803 0.565120
0.576318 0.548167 0.566137
0.577943 0.549531 0.567154
0.579569 0.550894 0.568172
0.581194 0.552258 0.569189
0.582819 0.553622 0.570206
0.584445 0.554986 0.571223
0.586070 0.556349 0.572425
0.587696 0.557869 0.574537
0.589321 0.560417 0.576650
0.590947 0.562965 0.578762
0.592572 0.565513 0.580874
0.594197 0.568060 0.582986
0.596378 0.570608 0.585098
0.599003 0.573156 0.587211
0.601628 0.575704 0.589323
0.604254 0.578252 0.591435
0.606879 0.580800 0.593547
0.609504 0.583348 0.595659
0.612129 0.585896 0.597771
0.614754 0.588444 0.599884
0.617379 0.590992 0.601996
0.620004 0.593540 0.604108
0.622630 0.596088 0.606220
0.625255 0.598636 0.608332
0.627880 0.601184 0.610445
0.630505 0.603732 0.612557
0.633130 0.606279 0.614669
0.635755 0.608827 0.616781
0.638381 0.611375 0.618893
0.641006 0.613923 0.621219
0.643631 0.616611 0.624058
0.646256 0.619762 0.626897
0.648881 0.622914 0.629737
0.651506 0.626065 0.632576
0.654131 0.629216 0.635415
0.656783 0.632367 0.638255
0.659763 0.635518 0.641094
0.662743 0.638670 0.643934
0.665723 0.641821 0.646773
0.668703 0.644972 0.649612
0.671682 0.648123 0.652452
0.674662 0.651274 0.655291
0.677642 0.654426 0.658130
0.680622 0.657577 0.660970
0.683602 0.660728 0.663809
0.686581 0.663879 0.666649
0.689561 0.667030 0.669488
0.692541 0.670182 0.672327
0.695521 0.673333 0.675167
0.698501 0.676484 0.678006
0.701481 0.679635 0.680845
0.704460 0.682786 0.683685
0.707440 0.685938 0.686831
0.710420 0.689229 0.690405
0.713400 0.692801 0.693980
0.716380 0.696373 0.697555
0.719359 0.699945 0.701129
0.722339 0.703517 0.704704
0.725319 0.707089 0.708278
0.728594 0.710661 0.711853
0.732068 0.714233 0.715428
0.735543 0.717805 0.719002
0.739018 0.721377 0.722577
0.742492 0.724949 0.726151
0.745967 0.728521 0.729726
0.749441 0.732093 0.733301
0.752916 0.735665 0.736875
0.756391 0.739237 0.740450
0.759865 0.742809 0.744024
0.763340 0.746381 0.747599
0.766815 0.749952 0.751173
0.770289 0.753524 0.754748
0.773764 0.757096 0.758323
0.777239 0.760668 0.761897
0.780713 0.764241 0.765472
0.784188 0.767812 0.768984
0.787663 0.771343 0.772442
0.791137 0.774820 0.775901
0.794612 0.778297 0.779360
0.798086 0.781774 0.782818
0.801561 0.785251 0.786277
0.805036 0.788728 0.789735
0.808408 0.792205 0.793194
0.810993 0.795682 0.796653
0.813579 0.799159 0.800111
0.816165 0.802636 0.803570
0.818751 0.806113 0.807028
0.821337 0.809590 0.810487
0.823922 0.813067 0.813946
0.826508 0.816544 0.817404
0.829094 0.820021 0.820863
0.831680 0.823498 0.824322
0.834266 0.826975 0.827780
0.836851 0.830452 0.831239
0.839437 0.833929 0.834697
0.842023 0.837406 0.838156
0.844609 0.840883 0.841615
0.847195 0.844360 0.845073
0.849780 0.847837 0.848046
0.852366 0.850905 0.850775
0.854952 0.853615 0.853503
0.857538 0.856324 0.856232
0.860124 0.859033 0.858960
0.862709 0.861743 0.861689
0.865295 0.864452 0.864417
0.867881 0.867161 0.867146
0.870388 0.869871 0.869874
0.872851 0.872580 0.872603
0.875313 0.875289 0.875331
0.877776 0.877999 0.878060
0.880238 0.880708 0.880788
0.882701 0.883417 0.883517
0.885163 0.886127 0.886245
0.887626 0.888836 0.888974
0.890089 0.891546 0.891702
0.892551 0.894255 0.894431
0.895014 0.896964 0.897160
0.897476 0.899674 0.899888
0.899939 0.902383 0.902617
0.902401 0.905092 0.905345
0.904864 0.907802 0.908074
0.907326 0.910511 0.910086
0.909789 0.912614 0.911909
0.912251 0.914366 0.913731
0.914714 0.916118 0.915553
0.917176 0.917870 0.917375
0.919639 0.919622 0.919197
0.922101 0.921374 0.921020
0.924564 0.923126 0.922842
0.926863 0.924877 0.924664
0.928277 0.926629 0.926486
0.929691 0.928381 0.928308
0.931104 0.930133 0.930131
0.932518 0.931885 0.931953
0.933932 0.933637 0.933775
0.935346 0.935389 0.935597
0.936760 0.937141 0.937420
0.938173 0.938893 0.939242
0.939587 0.940645 0.941064
0.941001 0.942397 0.942886
0.942415 0.944149 0.944708
0.943829 0.945901 0.946531
0.945243 0.947653 0.948353
0.946656 0.949405 0.950175
0.948070 0.951157 0.951266
0.949484 0.952362 0.952289
0.950898 0.953370 0.953312
0.952312 0.954378 0.954334
0.953725 0.955385 0.955357
0.955139 0.956393 0.956379
0.956553 0.957401 0.957402
0.957967 0.958408 0.958424
0.959381 0.959416 0.959447
0.960443 0.960423 0.960470
0.961336 0.961431 0.961492
0.962230 0.962439 0.962515
0.963124 0.963446 0.963537
0.964017 0.964454 0.964560
0.964911 0.965462 0.965583
0.965804 0.966469 0.966605
0.966698 0.967477 0.967628
0.967591 0.968484 0.968650
0.968485 0.969492 0.969673
0.969378 0.970500 0.970695
0.970272 0.971507 0.971718
0.971166 0.972515 0.972741
0.972059 0.973523 0.973748
0.972953 0.974530 0.974368
0.973846 0.975197 0.974989
0.974740 0.975795 0.975609
0.975633 0.976394 0.976230
0.976527 0.976992 0.976850
0.977421 0.977591 0.977471
0.978314 0.978189 0.978091
0.979208 0.978788 0.978712
0.980101 0.979386 0.979333
0.980907 0.979985 0.979953
0.981356 0.980583 0.980573
0.981804 0.981182 0.981194
0.982252 0.981780 0.981815
0.982700 0.982379 0.982435
0.983149 0.982977 0.983056
0.983597 0.983576 0.983676
0.984045 0.984174 0.984297
0.984493 0.984773 0.984917
0.984942 0.985371 0.985538
0.985390 0.985970 0.986158
0.985838 0.986568 0.986779
0.986286 0.987167 0.987399
0.986735 0.987765 0.987964
0.987183 0.988364 0.988241
0.987631 0.988650 0.988518
0.988079 0.988914 0.988795
0.988527 0.989178 0.989072
0.988976 0.989443 0.989349
0.989424 0.989707 0.989626
0.989872 0.989971 0.989903
0.990320 0.990235 0.990180
0.990769 0.990499 0.990457
0.991217 0.990763 0.990734
0.991479 0.991028 0.991011
0.991666 0.991292 0.991288
0.991854 0.991556 0.991565
0.992042 0.991820 0.991842
0.992230 0.992084 0.992119
0.992418 0.992348 0.992396
0.992606 0.992613 0.992673
0.992794 0.992877 0.992950
0.992981 0.993141 0.993227
0.993169 0.993405 0.993504
0.993357 0.993669 0.993781
0.993545 0.993933 0.994058
0.993733 0.994198 0.994293
0.993920 0.994457 0.994422
0.994108 0.994582 0.994552
0.994296 0.994707 0.994681
0.994484 0.994832 0.994811
0.994672 0.994957 0.994940
0.994860 0.995082 0.995069
0.995047 0.995207 0.995199
0.995235 0.995332 0.995328
0.995423 0.995457 0.995458
0.995611 0.995582 0.995587
0.995776 0.995707 0.995716
0.995866 0.995832 0.995846
0.995956 0.995957 0.995975
0.996046 0.996082 0.996105
0.996137 0.996208 0.996234
0.996227 0.996333 0.996363
0.996317 0.996458 0.996493
0.996407 0.996583 0.996622
0.996497 0.996708 0.996752
0.996588 0.996833 0.996881
0.996678 0.996958 0.997010
0.996768 0.997083 0.997140
0.996858 0.997208 0.997238
0.996948 0.997323 0.997291
0.997039 0.997371 0.997344
0.997129 0.997420 0.997397
0.997219 0.997469 0.997450
0.997309 0.997518 0.997503
0.997400 0.997566 0.997555
0.997490 0.997615 0.997608
0.997580 0.997664 0.997661
0.997670 0.997713 0.997714
0.997760 0.997761 0.997767
0.997851 0.997810 0.997820
0.997890 0.997859 0.997873
0.997912 0.997908 0.997926
0.997935 0.997956 0.997979
0.997958 0.998005 0.998032
0.997981 0.998054 0.998085
0.998003 0.998103 0.998138
0.998026 0.998151 0.998191
0.998049 0.998200 0.998244
0.998071 0.998249 0.998296
0.998094 0.998298 0.998349
0.998117 0.998347 0.998402
